X: 57
T:Robin Ddiog
T:Lazy Robin
M:6/8
L:1/8
Q:130
C:Trad
S:Blodau'r Grug Collection Vol. 1
R:Set Dance
A:Wales
Z:brian_martin12345@yahoo.com
K:Gm
A|B2B AAA|G2GB2B|A2AG2G|D2DG2D|G2G GGA|B2cd2c|BAGA2B|G3G3|]
d3-d2B|G3-G2B|d2ed2B|G3c3|BAGA2B|G3-G2:||

